!!! OTL: Berkowitz272
!!! Chapter: 1
!!! Section: II
!!! Page: 64
!!! Mode: 
!!! Encoder: DJB
**kern
*staff1
*I"Piano
=1-
*clefG2
*k[b-e-a-d-]
*f:
*M4/4
1cc
=2
8r
8ee-\L
8dd-\
8cc\J
8b-\L
8a-\
8b-\
8dd-\J
=3
1cc
=4
8r
8a-/L
8g/
8f/J
8g-\L
8b-\
8dd-\
8g-\J
=5
8en/L
8f/
8g/
8a-/J
8b-\L
8dd-\
8cc\
8b-\J
=6
8a-/L
8g/J
4f/
2f/
=7
1dd-
=8
!!linebreak:original
8r
8ff\L
8ee-\
8dd-\J
8cc\L
8b-\
8a-\
8b-\J
=9
1cc
=10
8r
8ee-\L
8dd-\
8cc\J
8b-/L
8a-/
8g/
8a-/J
=11
8b-/L
8a-/
8g-/
8a-/J
8b-/L
8g-/J
4dd-\
=12
8cc/L
8a-/
8g/
8f/J
8b-/L
8g/
8f/
8en/J
=13
8f/L
8c/J
2.cc\
=14
2a-/
2g/
=15
!!linebreak:original
[1f
=16
1f]
==
*-
